dist/img/sprites/true-user.svg

<svg width="25" height="25" viewBox="0 0 25 25" fill="none" xmlns="http://www.w3.org/2000/svg">
<path d="M12.4902 22.498C10.1736 21.9147 8.2609 20.5854 6.75223 18.51C5.24357 16.4347 4.48957 14.1307 4.49023 11.598V5.49805L12.4902 2.49805L20.4902 5.49805V11.598C20.4902 14.1314 19.7362 16.4357 18.2282 18.511C16.7202 20.5864 14.8076 21.9154 12.4902 22.498ZM12.4902 20.398C14.2236 19.848 15.6569 18.748 16.7902 17.098C17.9236 15.448 18.4902 13.6147 18.4902 11.598V6.87305L12.4902 4.62305L6.49023 6.87305V11.598C6.49023 13.6147 7.0569 15.448 8.19023 17.098C9.32357 18.748 10.7569 19.848 12.4902 20.398Z" fill="#0084CF"/>
</svg>

<svg width="25" height="25" viewBox="0 0 25 25" fill="none" xmlns="http://www.w3.org/2000/svg"><path d="M12.49 22.498c-2.316-.583-4.23-1.913-5.738-3.988S4.49 14.13 4.49 11.598v-6.1l8-3 8 3v6.1c0 2.533-.754 4.838-2.262 6.913s-3.42 3.404-5.738 3.987zm0-2.1c1.734-.55 3.167-1.65 4.3-3.3 1.134-1.65 1.7-3.483 1.7-5.5V6.873l-6-2.25-6 2.25v4.725c0 2.017.567 3.85 1.7 5.5 1.134 1.65 2.567 2.75 4.3 3.3z" fill="#0084CF"/></svg>
